modules/themify-icons/icons/calendar.svg

<?xml version="1.0" encoding="utf-8"?>
<!-- Generated by IcoMoon.io -->
<!DOCTYPE svg PUBLIC "-//W3C//DTD SVG 1.1//EN" "http://www.w3.org/Graphics/SVG/1.1/DTD/svg11.dtd">
<svg version="1.1" xmlns="http://www.w3.org/2000/svg" xmlns:xlink="http://www.w3.org/1999/xlink" width="17" height="17" viewBox="0 0 17 17">
<g>
</g>
	<path d="M14 2v-1h-3v1h-5v-1h-3v1h-3v15h17v-15h-3zM12 2h1v2h-1v-2zM4 2h1v2h-1v-2zM16 16h-15v-8.921h15v8.921zM1 6.079v-3.079h2v2h3v-2h5v2h3v-2h2v3.079h-15z" fill="#000000" />
</svg>

<svg xmlns="http://www.w3.org/2000/svg" width="17" height="17"><path d="M14 2V1h-3v1H6V1H3v1H0v15h17V2h-3zm-2 0h1v2h-1V2zM4 2h1v2H4V2zm12 14H1V7.079h15V16zM1 6.079V3h2v2h3V3h5v2h3V3h2v3.079H1z"/></svg>
